X:1
T:Title
%%score [ ( 1 2 ) ( 3 4 ) ]
L:1/8
Q:1/4=120
M:3/4
K:G
V:1 treble nm="Midi_74" snm=" "
V:2 treble 
V:3 bass nm="Midi_74"
V:4 bass 
V:1
 D2 | (G2 F2) G2 | (A2 B2)"^Tomorrow shall be my dancing day" c2 | (d2 c2) B2 | A4 B2 | %5
w: To-|mor- ow shall|be * my|danc * ing|day; I|
w: |||||
w: Then|af * ter-|wards * bap-|tized * I|was, the|
"^Traditional, arr. R.R. Terry" (G2 F2) G2 |[M:3/4] (A2 B2) c2 | (d2 c2) B2 | A4 Bc | d4 B2 | %10
w: would * my|true * love|did * so|chance to *|see the|
w: |||||
w: Ho * ly|Ghost * on|me * did|glance, my *|Fa- ther's|
 c4 B2 | (A2 G2) B2 | A4 D2 | G4 A2 | (B2 c2) d2 | (c2 B2) A2 | G4 B2 | A4 Bc | d6 | (B2 G2) B2 | %20
w: le- gend|of * my|play, to|call my|true * love|to * the|dance. *||||
w: ||||||||||
w: voice heard|from * a-|bove, to|call my|true * love|to * my|dance. *||||
 A4 B2 | A4 B2 | A4 D2 | G4 A2 | (B2 c2) d2 | (c2 B2) A2 | G4 |] %27
w: |||||||
w: |||||||
w: |||||||
V:2
 D2 | (D2 D2) D2 | (F2 F2) G2 | G4 G2 | F4 F2 | E4 E2 |[M:3/4] E4 E2 | (D2 D2) G2 | F4 F2 | G4 G2 | %10
w: ||||||||||
w: Then|was * I|born of a|Vir- gin|pure, of|her I|took my|flesh- ly sub-|stance; thus|was I|
 G2 D4 | E4 G2 | (F2 E2) D2 | D4 F2 | (G2 A2) B2 | (A2 G2) F2 | G4 G2 | F4 G2 | (G4 F2) | G2 D4 | %20
w: |||||||||oh! ~~~~my|
w: knit ~~~~to|man's na-|ture, * to|call my|true * love|to * the|dance. Sing|oh! my|love, *||
 D4 D2 | D4 D2 | D4 D2 | (D3 E) F2 | G4 G2 | G4 F2 | G4 |] %27
w: love, my|love, my|love; this|have * I|done for|my true|love.|
w: |||||||
V:3
 D,2 | (B,2 C2) B,2 | (D2 D2) E2 | D4 D2 | D4 D2 | B,4 B,2 |[M:3/4] C4 C2 | (A,2 A,2) D2 | D4 D2 | %9
 D4 D2 | (C2 A,2) B,2 | B,4 ^C2 | D4 A,2 | (B,2 D2) C2 | D4 D2 | D4 C2 | B,4 D2 | D4 DC | %18
 (B,2 D4) |"^This edition  Andrew Sims 2016" (B,2 G,2) B,2 | F,4 G,2 | F,4 G,2 | (F,2 G,2) A,2 | %23
 (B,2 D2) C2 | D4 D2 | (A,2 B,2) C2 | B,4 |] %27
V:4
 D,2 | (G,2 A,2) G,2 | (D,2 D2) C2 | (B,2 A,2) G,2 | (D,2 C,2) B,,2 | E,4 E,2 |[M:3/4] A,4 A,2 | %7
 (F,2 F,2) G,2 | D4 C2 | (B,2 A,2) G,2 | (E,2 F,2) G,2 | E,4 E,2 | (D,2 E,2) F,2 | (G,2 B,2) A,2 | %14
 G,4 G,2 | D,4 D,2 | G,,4 G,2 | (D,2 C,2) B,,A,, | (G,,2 B,,2 D,2) | (G,2 B,2) G,2 | D,4 G,2 | %21
 (D,2 C,2) B,,2 | (D,2 E,2) F,2 | (G,2 B,2) A,2 | G,4 B,,2 | D,4 D,2 | G,,4 |] %27

